Papirus/24x24/apps/FreeTexturePacker.svg

<svg xmlns="http://www.w3.org/2000/svg" width="24" height="24" version="1.1">
 <path style="opacity:0.2" d="M 12.5,1.4999648 A 1.9978709,1.9927244 0 0 0 11.586901,1.7382883 C 9.1187846,3.0717041 6.7392746,4.4864985 4.3690316,5.8239675 l 0.0166,-0.0068 c -0.485619,0.259415 -0.972836,0.713376 -1.18361,1.214079 -0.230517,0.547602 -0.21934,0.97594 -0.17969,1.299056 0.01132,2.6256175 -0.02495,5.2881255 0.04101,7.9877335 a 1.9978709,1.9927244 0 0 0 0.758799,1.514914 c 0.933472,0.735573 1.817547,1.095512 2.336945,1.422125 a 1.9978709,1.9927244 0 0 0 0.07617,0.04493 c 1.717357,0.975963 3.437963,1.964095 5.1709674,2.942901 a 1.9978709,1.9927244 0 0 0 1.093765,0.25395 1.9978709,1.9927244 0 0 0 1.093765,-0.25395 c 1.733005,-0.978806 3.453609,-1.966937 5.170968,-2.942901 a 1.9978709,1.9927244 0 0 0 0.07617,-0.04493 c 0.519397,-0.326612 1.403473,-0.686552 2.336945,-1.422125 a 1.9978709,1.9927244 0 0 0 0.758799,-1.514914 c 0.06596,-2.699608 0.0297,-5.362116 0.04101,-7.9877335 0.03965,-0.323116 0.05083,-0.751454 -0.179689,-1.299056 -0.210774,-0.500703 -0.697992,-0.954664 -1.18361,-1.21408 l 0.0166,0.0068 C 18.26071,4.4864985 15.8812,3.0717041 13.413082,1.7382883 A 1.9978709,1.9927244 0 0 0 12.499984,1.4999648 Z"/>
 <path style="fill:#3f3f3f" d="M 12.5,0.99996541 A 1.9978709,1.9927244 0 0 0 11.586901,1.2382889 C 9.1187846,2.5717047 6.7392746,3.9864991 4.3690316,5.3239681 l 0.0166,-0.0068 c -0.485619,0.259415 -0.972836,0.713376 -1.18361,1.214079 -0.230517,0.547602 -0.21934,0.97594 -0.17969,1.299056 0.01132,2.6256169 -0.02495,5.2881249 0.04101,7.9877329 a 1.9978709,1.9927244 0 0 0 0.758799,1.514914 c 0.933472,0.735573 1.817547,1.095512 2.336945,1.422125 a 1.9978709,1.9927244 0 0 0 0.07617,0.04493 c 1.717357,0.975963 3.437963,1.964095 5.1709674,2.942901 a 1.9978709,1.9927244 0 0 0 1.093765,0.25395 1.9978709,1.9927244 0 0 0 1.093765,-0.25395 c 1.733005,-0.978806 3.453609,-1.966937 5.170968,-2.942901 a 1.9978709,1.9927244 0 0 0 0.07617,-0.04493 c 0.519397,-0.326612 1.403473,-0.686552 2.336945,-1.422125 a 1.9978709,1.9927244 0 0 0 0.758799,-1.514914 c 0.06596,-2.699608 0.0297,-5.362116 0.04101,-7.9877329 0.03965,-0.323116 0.05083,-0.751454 -0.179689,-1.299056 -0.210774,-0.500703 -0.697992,-0.954664 -1.18361,-1.21408 l 0.0166,0.0068 C 18.26071,3.9864991 15.8812,2.5717047 13.413082,1.2382889 A 1.9978709,1.9927244 0 0 0 12.499984,0.99996541 Z"/>
 <path style="opacity:0.2" d="M 12.525391,3.4389691 C 10.102643,4.7512554 7.7313527,6.16558 5.3320312,7.5229535 4.9996228,7.6143178 4.9525772,7.8676355 5,8.1752972 5.013024,10.872464 4.975304,13.570823 5.041016,16.267094 c 0.636027,0.502482 1.4595338,0.85733 2.1660156,1.302734 1.7244893,0.982549 3.4450664,1.973349 5.1718744,2.951172 0.764912,-0.152831 1.471351,-0.780684 2.208985,-1.117187 C 16.394957,18.380651 18.196076,17.348513 20,16.319828 V 7.6909222 C 17.509627,6.2725379 15.02996,4.8320385 12.525391,3.4389691 Z m -0.03516,1.2578125 c 2.170901,1.1767658 4.320147,2.3993046 6.44336,3.6601563 0.03566,2.4091671 0.05207,4.8197111 0,7.2285161 -0.463068,0.517186 -1.27447,0.764107 -1.863282,1.179687 -1.505271,0.86065 -3.008317,1.723623 -4.521484,2.570313 C 10.385224,18.168298 8.244357,16.955756 6.1269531,15.706547 5.9953024,14.442886 6.0925914,13.153782 6.0605469,11.880375 V 8.3842816 c 2.1231109,-1.2608373 4.2817881,-2.4682483 6.4296871,-3.6875 z m 0.01758,1.0546875 c -0.06977,0 -1.033203,0.5754371 -1.033203,0.6171875 0,0.0245 0.46089,0.3091532 1.025391,0.6328125 0.564501,0.3236663 1.025391,0.6076278 1.025391,0.6289063 0,0.03385 -4.2617366,2.4960936 -4.3203129,2.4960936 -0.012385,0 -0.4952014,-0.2694276 -1.0742187,-0.5996092 C 7.5518492,9.1966829 7.060156,8.9272504 7.0390625,8.9272504 7.0141375,8.9272504 7,10.020403 7,12.062016 v 3.134766 l 0.515625,0.292968 c 0.2832648,0.161045 0.5280252,0.292969 0.5429688,0.292969 0.014945,0 0.025391,-0.540115 0.025391,-1.199219 0,-0.76685 0.013948,-1.205195 0.039063,-1.220703 0.02156,-0.01332 0.4990591,0.235694 1.0605469,0.556641 0.5614953,0.320948 1.0404083,0.583984 1.0644533,0.583984 0.03058,0 0.04297,-0.179534 0.04297,-0.597656 V 13.30811 L 10.185549,13.23389 C 10.126959,13.193255 9.6548732,12.920557 9.1367188,12.626469 8.6185695,12.332373 8.1710099,12.067011 8.140625,12.036625 8.071626,11.967625 8.057268,10.883188 8.125,10.841313 c 0.022865,-0.01413 0.7485815,0.379208 1.6113281,0.873047 0.8685479,0.497161 1.5944239,0.888688 1.6249999,0.876953 0.04426,-0.01699 0.05321,-0.1307 0.05273,-0.574219 -3.79e-4,-0.304221 -0.01347,-0.572799 -0.0293,-0.597656 -0.01581,-0.02486 -0.236843,-0.166002 -0.492188,-0.3125 -0.255352,-0.146498 -0.469578,-0.291254 -0.474609,-0.322266 -0.01051,-0.06105 4.186178,-2.4765622 4.302734,-2.4765622 0.09818,0 2.12129,1.1673173 2.105469,1.2148437 -0.0077,0.023025 -0.957977,0.5530425 -1.78711,1.0273435 -0.829126,0.474302 -1.890642,0.974256 -1.949218,1.017578 L 12.984375,11.646 v 3.056641 c 0,1.680471 0.01031,2.883687 0.02344,2.917969 0.02026,0.05278 0.06779,0.03569 0.31836,-0.101563 0.162594,-0.08906 0.401488,-0.223691 0.529297,-0.300781 l 0.232422,-0.140625 0.0098,-1.244141 c 0.0088,-1.072367 0.02009,-1.050428 0.07227,-1.09375 0,0 2.50232,-1.301865 3.810547,-2.048828 l 0.0098,-1.90039 L 18,8.890141 17.855469,8.796391 C 17.604145,8.6340831 12.541524,5.7514691 12.507811,5.7514691 Z M 16.875,10.843266 c 0.04571,0.02825 0.0546,1.099437 0.0098,1.169922 -0.837916,0.592213 -2.705079,1.435547 -2.705078,1.435547 -0.05981,0.03602 -0.07227,-0.07378 -0.07227,-0.603516 0,-0.493224 0.0095,-0.575972 0.06836,-0.626953 0.143855,-0.124731 2.661549,-1.39829 2.699219,-1.375 z"/>
 <path style="fill:#ffffff" d="M 12.526346,2.9394957 C 10.103598,4.251782 7.7323242,5.6651212 5.3330027,7.0224947 5.0005942,7.113859 4.9528844,7.367347 5.0003072,7.6750088 c 0.013024,2.6971672 -0.025815,5.3954252 0.039897,8.0916962 0.636027,0.502482 1.4602297,0.858869 2.1667116,1.304273 1.7244893,0.982548 3.4450632,1.972987 5.1718712,2.95081 0.764912,-0.152831 1.471623,-0.780141 2.209257,-1.116644 1.807066,-1.023162 3.607995,-2.057109 5.411919,-3.085793 0,-2.876296 0,-5.752592 0,-8.6288881 C 17.50959,5.7720785 15.030915,4.3325651 12.526346,2.9394957 Z m -0.03613,1.2578098 c 2.170901,1.1767658 4.320133,2.3983202 6.443346,3.6591719 0.03566,2.4091676 0.05142,4.8210966 -6.5e-4,7.2299006 -0.463068,0.517187 -1.273279,0.762842 -1.86209,1.178422 -1.505271,0.86065 -3.008855,1.724456 -4.522022,2.571145 C 10.385196,17.66879 8.2443381,16.455279 6.1269342,15.20607 5.9952835,13.942409 6.0935493,12.653458 6.0615048,11.380051 c 0,-1.165085 0,-2.3301692 0,-3.4952536 C 8.1846157,6.6239601 10.342303,5.4165572 12.490202,4.1973055 Z"/>
 <path style="fill:#ffffff" d="m 12.507499,5.2512696 c -0.06977,0 -1.033723,0.5768787 -1.033723,0.6186291 0,0.0245 0.461201,0.3090074 1.025702,0.6326667 0.564501,0.3236663 1.026705,0.6063746 1.026705,0.6276531 0,0.03385 -4.2628067,2.4975796 -4.321383,2.4975796 -0.012385,0 -0.4958144,-0.269398 -1.0748317,-0.5995797 C 7.5509581,8.6980416 7.0591862,8.4276362 7.0380927,8.4276362 c -0.024925,0 -0.0381,1.0926431 -0.0381,3.1342558 v 3.135259 l 0.5153574,0.292771 c 0.2832648,0.161045 0.5274853,0.292771 0.5424288,0.292771 0.014945,0 0.02707,-0.539053 0.02707,-1.198157 0,-0.76685 0.01399,-1.206711 0.039105,-1.222219 0.02156,-0.01332 0.4983034,0.237524 1.0597912,0.558471 0.5614953,0.320948 1.0407599,0.583537 1.0648049,0.583537 0.03058,0 0.04312,-0.179451 0.04312,-0.597573 v -0.597574 l -0.10628,-0.0742 C 10.126802,12.694342 9.6547775,12.420467 9.1366231,12.126379 8.6184738,11.832283 8.1703827,11.567212 8.1399978,11.536826 c -0.068999,-0.069 -0.081767,-1.152271 -0.014035,-1.194146 0.022865,-0.01413 0.7474949,0.378459 1.6102415,0.872298 0.8685477,0.497161 1.5937027,0.888044 1.6242787,0.876309 0.04426,-0.01699 0.05462,-0.129993 0.05414,-0.573512 -3.79e-4,-0.304221 -0.01325,-0.573719 -0.02908,-0.598576 -0.01581,-0.02486 -0.237954,-0.165323 -0.493299,-0.311821 -0.255352,-0.146498 -0.469218,-0.291839 -0.474249,-0.322851 -0.01051,-0.06105 4.186778,-2.476523 4.303334,-2.476523 0.09818,0 2.120366,1.1676745 2.104545,1.2152009 -0.0077,0.023025 -0.958643,0.5539671 -1.787775,1.0282681 -0.829127,0.474302 -1.889315,0.973375 -1.947891,1.016697 l -0.10628,0.07921 v 3.055048 c 0,1.680471 0.01094,2.883825 0.02407,2.918107 0.02026,0.05278 0.06827,0.03699 0.318841,-0.100265 0.162594,-0.08906 0.400582,-0.224704 0.528391,-0.301794 l 0.232613,-0.14037 0.01002,-1.243275 c 0.0088,-1.072367 0.01901,-1.050982 0.07119,-1.094304 0,0 2.502637,-1.302013 3.810864,-2.048976 l 0.01003,-1.901007 0.01002,-1.9000048 -0.145383,-0.094248 C 17.60326,8.1339833 12.541215,5.2512696 12.507503,5.2512696 Z m 4.367504,5.0924134 c 0.04571,0.02825 0.05485,1.098594 0.01002,1.169079 -0.837916,0.592213 -2.70495,1.436363 -2.70495,1.436363 -0.05981,0.03602 -0.07319,-0.07385 -0.07319,-0.60359 0,-0.493224 0.0093,-0.576673 0.06818,-0.627654 0.143855,-0.124731 2.662267,-1.397488 2.699937,-1.374198 z"/>
 <path style="opacity:0.1;fill:#ffffff" d="M 12.5 1 A 1.9978709 1.9927244 0 0 0 11.585938 1.2382812 C 9.1230502 2.568872 6.7500264 3.9814447 4.3847656 5.3164062 C 3.8991466 5.5758212 3.4119459 6.030547 3.2011719 6.53125 C 2.9933876 7.0248495 2.9907225 7.4086688 3.0195312 7.71875 C 3.0435489 7.513905 3.0937239 7.2864969 3.2011719 7.03125 C 3.4119459 6.530547 3.8991466 6.0758212 4.3847656 5.8164062 C 6.7500264 4.4814447 9.1230502 3.068872 11.585938 1.7382812 A 1.9978709 1.9927244 0 0 1 12.5 1.5 A 1.9978709 1.9927244 0 0 1 13.412109 1.7382812 C 15.874998 3.068872 18.249981 4.4814457 20.615234 5.8164062 C 21.100852 6.0758223 21.588054 6.530547 21.798828 7.03125 C 21.906277 7.2864969 21.956452 7.513905 21.980469 7.71875 C 22.009278 7.4086688 22.006614 7.0248495 21.798828 6.53125 C 21.588054 6.030547 21.100852 5.5758223 20.615234 5.3164062 C 18.249981 3.9814457 15.874998 2.568872 13.412109 1.2382812 A 1.9978709 1.9927244 0 0 0 12.5 1 z"/>
</svg>

<svg xmlns="http://www.w3.org/2000/svg" width="24" height="24" version="1.1">
 <path style="opacity:0.2" d="M 12.5,1.4999 C 12.181,1.5055 11.868,1.5872 11.587,1.7383 L 4.3856,5.8172 C 3.9,6.0766 3.4128,6.5305 3.202,7.0312 2.9715,7.5788 2.9827,8.0072 3.0223,8.3303 L 3.0633,16.318 C 3.0779,16.91 3.356,17.466 3.8221,17.833 4.7556,18.569 11.406,22.243 11.406,22.243 11.739,22.43 12.119,22.518 12.5,22.497 12.881,22.518 13.261,22.43 13.594,22.243 13.594,22.243 20.244,18.569 21.178,17.833 21.644,17.466 21.922,16.91 21.937,16.318 L 21.978,8.3303 C 22.017,8.0072 22.028,7.5788 21.798,7.0312 21.587,6.5305 21.1,6.0766 20.614,5.8172 L 13.413,1.7383 C 13.132,1.5872 12.819,1.5055 12.5,1.4999 Z"/>
 <path style="fill:#3f3f3f" d="M 12.5,0.99997 C 12.181,1.0055 11.868,1.0872 11.587,1.2383 L 4.3856,5.3172 C 3.9,5.5766 3.4128,6.0305 3.202,6.5312 2.9715,7.0788 2.9827,7.5072 3.0223,7.8303 L 3.0633,15.818 C 3.0779,16.41 3.356,16.966 3.8221,17.333 4.7556,18.069 11.406,21.743 11.406,21.743 11.739,21.93 12.119,22.018 12.5,21.997 12.881,22.018 13.261,21.93 13.594,21.743 13.594,21.743 20.244,18.069 21.178,17.333 21.644,16.966 21.922,16.41 21.937,15.818 L 21.978,7.8303 C 22.017,7.5072 22.028,7.0788 21.798,6.5312 21.587,6.0305 21.1,5.5766 20.614,5.3172 L 13.413,1.2383 C 13.132,1.0872 12.819,1.0055 12.5,0.99997 Z"/>
 <path style="opacity:0.2" d="M 12.507,5.7513 11.474,6.3699 13.526,7.6302 9.2048,10.128 7.0381,8.9276 7,15.197 8.0578,15.783 8.124,13.362 10.249,14.504 10.292,13.309 8.14,12.037 8.126,10.843 11.36,12.591 11.386,11.419 10.418,10.785 14.721,8.308 16.826,9.5232 12.984,11.647 13,17.706 14.088,17.078 14.107,14.839 17.98,12.692 18,8.8905 Z M 16.875,10.844 16.885,12.013 14.107,13.553 V 12.249 Z M 12.526,3.4395 5,7.691 5.0402,16.267 12.549,20.522 20,16.319 V 7.6905 Z M 12.49,4.6973 18.934,8.3565 18.933,15.586 12.549,19.336 6.1269,15.706 6.0615,8.3848 Z"/>
 <path style="fill:#ffffff" d="M 12.507,5.2513 11.474,5.8699 13.526,7.1302 9.2048,9.6278 7.0381,8.4276 7,14.697 8.0578,15.283 8.124,12.862 10.249,14.004 10.292,12.809 8.14,11.537 8.126,10.343 11.36,12.091 11.386,10.919 10.418,10.285 14.721,7.808 16.826,9.0232 12.984,11.147 13,17.206 14.088,16.578 14.107,14.339 17.98,12.192 18,8.3905 Z M 16.875,10.344 16.885,11.513 14.107,13.053 V 11.749 Z M 12.526,2.9395 5,7.191 5.0402,15.767 12.549,20.022 20,15.819 V 7.1905 Z M 12.49,4.1973 18.934,7.8565 18.933,15.086 12.549,18.836 6.1269,15.206 6.0615,7.8848 Z"/>
 <path style="fill:#ffffff;opacity:0.1" d="M 12.5 1 C 12.181 1.0055 11.869 1.0872 11.588 1.2383 L 4.3848 5.3164 C 3.8992 5.5758 3.412 6.0305 3.2012 6.5312 C 2.9934 7.0248 2.9908 7.4087 3.0195 7.7188 C 3.0435 7.5139 3.0937 7.2865 3.2012 7.0312 C 3.412 6.5305 3.8992 6.0758 4.3848 5.8164 L 11.588 1.7383 C 11.869 1.5872 12.181 1.5056 12.5 1.5 C 12.819 1.5056 13.131 1.5872 13.412 1.7383 L 20.613 5.8164 C 21.099 6.0758 21.588 6.5305 21.799 7.0312 C 21.906 7.2873 21.957 7.5154 21.98 7.7207 C 22.009 7.4104 22.007 7.0258 21.799 6.5312 C 21.588 6.0305 21.099 5.5758 20.613 5.3164 L 13.412 1.2383 C 13.131 1.0872 12.819 1.0055 12.5 1 z"/>
</svg>
